X:1
T:Title
%%score { 1 | 2 }
L:1/8
M:4/4
K:Ab
V:1 treble nm="Grand Piano"
V:2 bass 
V:1
 z4 z2[Q:1/4=92] EE | [CA][CA][CA][CA] [CA][CE][EA]B |[M:3/4] c2 BA B2 |[M:1/4] A>B | %4
[M:4/4] [Ec][Ec][Ec][DB] [CA][CE][EA][FB] |[M:7/8] c2 c>B [CA]3 |[M:1/4] [EG]>[FA] | %7
[M:4/4] BBBc BE[EA][EB] |[M:3/4] [Ec][Ec] [DB][CA] cB |[M:1/4] cd |[M:4/4] e>e e>f ecAB | %11
[M:7/8] c2 c>B [CA]3 |] %12
V:2
 z4 z2 E,E, | [A,,E,][A,,E,][A,,E,][A,,E,] [A,,E,][A,,A,][C,A,][E,G,E] | %2
[M:3/4] [A,E]2 [G,B,E][F,B,=D] [E,G,E]2 |[M:1/4] [E,A,C]>[E,G,D] | %4
[M:4/4] [A,,A,][A,,A,][A,,A,][A,,E,] [A,,E,][A,,A,][C,A,][D,A,] | %5
[M:7/8] [E,A,E]2 [E,G,E]>[E,G,D] [A,,A,]3 |[M:1/4] [E,B,]>[E,B,] | %7
[M:4/4] [E,G,E][E,G,E][E,G,E][E,A,E] [E,G,E][D,G,][C,A,][B,,G,] | %8
[M:3/4] [A,,A,][A,,A,] [A,,E,][A,,A,] [E,A,E][E,G,E] |[M:1/4][K:treble] [A,E][A,B,E] | %10
[M:4/4] [A,CA]>[A,CA] [A,CA]>[A,DA] [A,CA][K:bass][A,E][F,A,=D][F,A,D] | %11
[M:7/8] [E,A,E]2 [E,G,E]>[E,G,D] [A,,A,]3 |] %12

